src/dsmComponents/Icons/device-mobile-12px.svg

<?xml version="1.0" encoding="UTF-8"?>
<svg width="8px" height="12px" viewBox="0 0 8 12" version="1.1" xmlns="http://www.w3.org/2000/svg" xmlns:xlink="http://www.w3.org/1999/xlink">
    <!-- Generator: Sketch 59.1 (86144) - https://sketch.com -->
    <title>device-mobile-12px</title>
    <desc>Created with Sketch.</desc>
    <defs>
        <path d="M5.5,0 C6.6045695,-2.02906125e-16 7.5,0.8954305 7.5,2 L7.5,10 C7.5,11.1045695 6.6045695,12 5.5,12 L2,12 C0.8954305,12 1.3527075e-16,11.1045695 0,10 L0,2 C-1.3527075e-16,0.8954305 0.8954305,2.02906125e-16 2,0 L5.5,0 Z M5.64203649,1.15872021 L1.88803526,1.15872021 L1.78626471,1.16556683 C1.42018915,1.21522925 1.13803526,1.52902445 1.13803526,1.90872021 L1.13803526,1.90872021 L1.13803526,10.125 L1.14488188,10.2267706 C1.1945443,10.5928461 1.5083395,10.875 1.88803526,10.875 L1.88803526,10.875 L5.64203649,10.875 L5.74380705,10.8681534 C6.10988261,10.818491 6.39203649,10.5046958 6.39203649,10.125 L6.39203649,10.125 L6.39203649,1.90872021 C6.39203649,1.49450665 6.05625005,1.15872021 5.64203649,1.15872021 L5.64203649,1.15872021 Z M2.625,9.375 L4.875,9.375 C5.08210678,9.375 5.25,9.54289322 5.25,9.75 C5.25,9.95710678 5.08210678,10.125 4.875,10.125 L2.625,10.125 C2.41789322,10.125 2.25,9.95710678 2.25,9.75 C2.25,9.54289322 2.41789322,9.375 2.625,9.375 Z" id="path-1"></path>
    </defs>
    <g id="Final" stroke="none" stroke-width="1" fill="none" fill-rule="evenodd">
        <g id="All-Nucleo-Icons" transform="translate(-176.000000, -2076.000000)">
            <g id="Solo/Nucleo/12px/device-mobile" transform="translate(168.000000, 2070.000000)">
                <g id="phone-button" transform="translate(8.000000, 6.000000)">
                    <g id="Colour/Default-Colour">
                        <mask id="mask-2" fill="white">
                            <use xlink:href="#path-1"></use>
                        </mask>
                        <g id="phone-button-(custom)" fill-rule="nonzero"></g>
                        <g id="colour/neutral/chia" mask="url(#mask-2)" fill="#737373">
                            <g transform="translate(-20.250000, -18.750000)" id="Colour">
                                <rect x="0" y="0" width="48" height="48"></rect>
                            </g>
                        </g>
                    </g>
                </g>
            </g>
        </g>
    </g>
</svg>

<svg width="8" height="12" xmlns="http://www.w3.org/2000/svg" xmlns:xlink="http://www.w3.org/1999/xlink"><defs><path d="M5.5 0a2 2 0 012 2v8a2 2 0 01-2 2H2a2 2 0 01-2-2V2a2 2 0 012-2h3.5zm.142 1.159H1.888l-.102.007a.75.75 0 00-.648.743v8.216l.007.102a.75.75 0 00.743.648h3.754l.102-.007a.75.75 0 00.648-.743V1.909a.75.75 0 00-.75-.75zM2.625 9.375h2.25a.375.375 0 010 .75h-2.25a.375.375 0 010-.75z" id="device-mobile-12px_svg__a"/></defs><use fill="#737373" xlink:href="#device-mobile-12px_svg__a" fill-rule="evenodd"/></svg>
